X:90
T: Alma a fa alatt, nyári, piros alma
M:4/4
L:1/4
K:Bb
c B/G/ c/B/ G | E F G<F | C2 C z |
e e d<c | B c d/c/d/c/ | G2 G z |
e e d<c | B c d/c/d/c/ | G2 B z |
c B/G/ c/B/ G | E F G<F | C2 C z |

